X: 123102
P: Same figure.
M: C
L: 1/8
K: A
vcB |\
c2cc (dc)BA | (cB)BA (Bd)cB |\
ceee ecAB | (cA)AA A2 :|
ue2 |\
(ce)ee (ef)ed | cBcd efec |\
(df)ff (fg)fe | dcde fgfe |\
ceag fedc | dcBA B2(ce) |\
ecaf ecAB | (cA)AA A2 |]


